X:0128
T:The Long Room of Scarbrough.
M:9/8
L:1/8
Q:3/8=120
I: :: ::
Z:Jack Campin * www.campin.me.uk * 2009
K:G
G2G GBG Bcd|G2G GBG AFD|G2G GBG Bcd|E2E EFG AFD:|
g2g gag fed|g2g gag afd|g2g gag fed|efg dcB AFD:|
BGB BGB c2d|BGB BGB AFD|BGB BGB c2d|EFE EFG AFD:|

